X: 30364
T: Old Pigeon On The Gate, The
R: reel
M: 4/4
K: Gmajor
|:A|B/c/d gd BG ~G2|ABcd ~e2 dc|B/c/d gd BGAB|cBAG FAD:|
|:F|G2 BG dGBG|F2 AF cFAF|G2 BG dGBG|cBAG FAD:|

